images/client-logos/samsung.svg

<svg height="133" viewBox="0 0 400 133" width="400" xmlns="http://www.w3.org/2000/svg"><path d="m399.309453 31.5820896c-5.432836-31.19601995-99.166169-40.93134333-209.367164-21.74527368-46.280597 8.06169158-88.069652 19.95223878-120.6129358 33.32935328 4.999005.1094527 8.7064677 1.2557213 10.959204 3.5024875 1.761194 1.7631841 2.6507463 4.1830846 2.6507463 7.19801v3.0945273h-10.8059702v-2.7323383c0-2.2766169-1.3651741-3.6875622-3.7830845-3.6875622-2.0318408 0-3.2835821.917413-3.6875622 2.7243781-.1353928.7143075-.1204823 1.4489881.0437811 2.157214 1.1562189 4.7263681 17.20199 7.6616915 18.9472636 16.3840796.2288558 1.122388.5393035 3.5243781.0497513 6.961194-1.000995 7.0348259-7.1820896 9.7492537-15.0507463 9.7492537-10.9830846 0-15.4447761-5.20199-15.4447761-12.3741293l.0079602-3.3930348h11.5840796l.0059701 4.2268656c0 2.3761194 1.7273632 3.6875622 4.079602 3.6875622 2.2288558 0 3.5303483-.8975124 3.9800995-2.7323383.2089553-.8437811.3004976-2.0875622-.0796019-3.038806-2.1432836-5.3771144-17.1263682-7.8885572-18.9711443-16.5830845-.4119403-1.9542289-.4457712-3.6179105-.1034826-5.7213931.1756171-1.042714.4985831-2.0551656.959204-3.0069651-36.0975125 16.881592-57.21393038 35.4567164-54.42388063 51.4945274 5.43880597 31.2 99.17014923 40.925373 209.36915383 21.739303 48.441791-8.43184 91.99204-21.054726 125.136319-35.1999996-.479602.0238806-.945274.0756219-1.442786.0756219-7.542289 0-14.276617-2.8258707-14.975125-10.5353234-.123383-1.4029851-.145273-1.9900497-.149253-2.7900497l.00398-17.7233831c0-.7641791.089552-2.1054727.175124-2.79801.893532-7.4507462 6.78408-10.5233831 14.949254-10.5233831 6.318408 0 14.065671 1.8129354 14.917413 10.5293533.113433 1.0945273.101492 2.2626865.099502 2.6467661v1.6736319h-10.913433v-2.4975125c0-.0537313-.01592-.9870646-.135323-1.5701492-.179104-.8895523-.937313-2.9512438-4.045771-2.9512438-3.070647 0-3.866667 2.0656716-4.065672 2.9532338-.113433.4875622-.167164 1.1880597-.167164 1.9641791v19.2616916c-.00995.6686567.023881 1.1920398.091542 1.5761194.053732.3024875.604975 2.9572139 4.179105 2.9572139 3.548259 0 4.097512-2.6547264 4.147264-2.9572139.093532-.521393.105472-1.1422886.101492-1.5761194v-5.9681592h-4.294527v-6.4278607h15.186069v11.4348259c-.00398.7781094-.01592 1.3532338-.147263 2.7860696-.183085 2.0218906-.819901 3.7333333-1.818906 5.1960199 35.150249-16.6905473 55.615921-34.9651741 52.861692-50.7701492zm-285.747264 55.2895522-5.528358-37.5641791h-.199005l-5.669652 37.5641791h-11.6517412l7.836816-42.4218906h19.0109452l7.789055 42.4218906zm56.043781 0-.256716-36.837811h-.187065l-6.855721 36.837811h-10.935324l-6.82189-36.837811h-.195025l-.248756 36.837811h-10.835821l.939303-42.4218906h17.428856l5.074627 31.5124379h.248756l5.088557-31.5124379h17.420896l.935323 42.4218906zm51.026866-8.2208955c-1.166169 8.2169154-9.215921 9.6537313-14.905473 9.6537313-9.446766 0-15.289552-4.0378109-15.289552-12.2547264l.00597-3.3512437h11.444776l.00796 4.1751243c0 2.2666667 1.59801 3.6537314 4.065672 3.6537314 2.200995 0 3.490547-.8835821 3.938309-2.6985075.206965-.8457711.292537-2.079602-.073632-3.0109453-2.109453-5.2756218-16.975125-7.8606965-18.78209-16.4199004-.41393-1.9402986-.443781-3.5880598-.103482-5.6696518 1.257711-7.759204 8.704477-9.3711443 14.698507-9.3711443 5.361194 0 9.263682 1.1701493 11.60398 3.5104478 1.745274 1.7472637 2.628856 4.1452736 2.628856 7.1283582v3.0606965h-10.702488v-2.7004975c0-2.3124378-1.434826-3.6497512-3.741293-3.6497512-2.045771 0-3.283582.9094527-3.689553 2.6985074-.131761.7069344-.114136 1.4336178.051742 2.1333334 1.146268 4.7044776 17.050746 7.5800995 18.79204 16.2208955.224875 1.1024875.533333 3.4686567.049751 6.8915423zm39.637811-3.8547264c.01592.7960199-.061692 2.3860697-.105473 2.7940299-.652736 6.9890547-5.651741 10.5412935-14.8199 10.5412935-9.20398 0-14.206966-3.5522388-14.855722-10.5412935-.073523-.9268404-.108711-1.8563234-.105472-2.7860697l-.000205-30.3641791h10.949458v31.321393c-.01194.7004975.023881 1.2179105.093533 1.5781095.135323.6965174.82786 2.9572139 3.918408 2.9572139 3.080597 0 3.773134-2.2626866 3.918408-2.9492537.061691-.3701493.099502-.9134329.099502-1.5880597v-31.319403h10.907463zm47.174129 11.6437811h-15.235821l-10.226865-33.6019901h-.171145l.567164 33.6019901h-10.618905v-41.9900498h15.874627l9.452736 32.278607h.220896l-.559204-32.278607h10.696517z" fill="#e3e8f0"/></svg>

<?xml version="1.0" encoding="UTF-8"?>
<svg width="400px" height="133px" viewBox="0 0 400 133" version="1.1" xmlns="http://www.w3.org/2000/svg" xmlns:xlink="http://www.w3.org/1999/xlink">
    <!-- Generator: Sketch 52.4 (67378) - http://www.bohemiancoding.com/sketch -->
    <title>samsung@1x</title>
    <desc>Created with Sketch.</desc>
    <g id="Page-1" stroke="none" stroke-width="1" fill="none" fill-rule="evenodd">
        <g id="samsung" fill="#E3E8F0" fill-rule="nonzero">
            <path d="M399.309453,31.5820896 C393.876617,0.386069652 300.143284,-9.34925373 189.942289,9.83681592 C143.661692,17.8985075 101.872637,29.7890547 69.3293532,43.1661692 C74.3283582,43.2756219 78.0358209,44.4218905 80.2885572,46.6686567 C82.0497512,48.4318408 82.9393035,50.8517413 82.9393035,53.8666667 L82.9393035,56.961194 L72.1333333,56.961194 L72.1333333,54.2288557 C72.1333333,51.9522388 70.7681592,50.5412935 68.3502488,50.5412935 C66.318408,50.5412935 65.0666667,51.4587065 64.6626866,53.2656716 C64.5272938,53.9799791 64.5422043,54.7146597 64.7064677,55.4228856 C65.8626866,60.1492537 81.9084577,63.0845771 83.6537313,71.8069652 C83.8825871,72.9293532 84.1930348,75.3313433 83.7034826,78.7681592 C82.7024876,85.8029851 76.521393,88.5174129 68.6527363,88.5174129 C57.6696517,88.5174129 53.2079602,83.3154229 53.2079602,76.1432836 L53.2159204,72.7502488 L64.8,72.7502488 L64.8059701,76.9771144 C64.8059701,79.3532338 66.5333333,80.6646766 68.8855721,80.6646766 C71.1144279,80.6646766 72.4159204,79.7671642 72.8656716,77.9323383 C73.0746269,77.0885572 73.1661692,75.8447761 72.7860697,74.8935323 C70.6427861,69.5164179 55.6597015,67.0049751 53.8149254,58.3104478 C53.4029851,56.3562189 53.3691542,54.6925373 53.7114428,52.5890547 C53.8870599,51.5463407 54.2100259,50.5338891 54.6706468,49.5820896 C18.5731343,66.4636816 -2.54328358,85.038806 0.246766169,101.076617 C5.68557214,132.276617 99.4169154,142.00199 209.61592,122.81592 C258.057711,114.38408 301.60796,101.761194 334.752239,87.6159204 C334.272637,87.639801 333.806965,87.6915423 333.309453,87.6915423 C325.767164,87.6915423 319.032836,84.8656716 318.334328,77.1562189 C318.210945,75.7532338 318.189055,75.1661692 318.185075,74.3661692 L318.189055,56.6427861 C318.189055,55.878607 318.278607,54.5373134 318.364179,53.8447761 C319.257711,46.3940299 325.148259,43.321393 333.313433,43.321393 C339.631841,43.321393 347.379104,45.1343284 348.230846,53.8507463 C348.344279,54.9452736 348.332338,56.1134328 348.330348,56.4975124 L348.330348,58.1711443 L337.416915,58.1711443 L337.416915,55.6736318 C337.416915,55.6199005 337.400995,54.6865672 337.281592,54.1034826 C337.102488,53.2139303 336.344279,51.1522388 333.235821,51.1522388 C330.165174,51.1522388 329.369154,53.2179104 329.170149,54.1054726 C329.056716,54.5930348 329.002985,55.2935323 329.002985,56.0696517 L329.002985,75.3313433 C328.993035,76 329.026866,76.5233831 329.094527,76.9074627 C329.148259,77.2099502 329.699502,79.8646766 333.273632,79.8646766 C336.821891,79.8646766 337.371144,77.2099502 337.420896,76.9074627 C337.514428,76.3860697 337.526368,75.7651741 337.522388,75.3313433 L337.522388,69.3631841 L333.227861,69.3631841 L333.227861,62.9353234 L348.41393,62.9353234 L348.41393,74.3701493 C348.40995,75.1482587 348.39801,75.7233831 348.266667,77.1562189 C348.083582,79.1781095 347.446766,80.8895522 346.447761,82.3522388 C381.59801,65.6616915 402.063682,47.3870647 399.309453,31.5820896 Z M113.562189,86.8716418 L108.033831,49.3074627 L107.834826,49.3074627 L102.165174,86.8716418 L90.5134328,86.8716418 L98.3502488,44.4497512 L117.361194,44.4497512 L125.150249,86.8716418 L113.562189,86.8716418 Z M169.60597,86.8716418 L169.349254,50.0338308 L169.162189,50.0338308 L162.306468,86.8716418 L151.371144,86.8716418 L144.549254,50.0338308 L144.354229,50.0338308 L144.105473,86.8716418 L133.269652,86.8716418 L134.208955,44.4497512 L151.637811,44.4497512 L156.712438,75.9621891 L156.961194,75.9621891 L162.049751,44.4497512 L179.470647,44.4497512 L180.40597,86.8716418 L169.60597,86.8716418 Z M220.632836,78.6507463 C219.466667,86.8676617 211.416915,88.3044776 205.727363,88.3044776 C196.280597,88.3044776 190.437811,84.2666667 190.437811,76.0497512 L190.443781,72.6985075 L201.888557,72.6985075 L201.896517,76.8736318 C201.896517,79.1402985 203.494527,80.5273632 205.962189,80.5273632 C208.163184,80.5273632 209.452736,79.6437811 209.900498,77.8288557 C210.107463,76.9830846 210.193035,75.7492537 209.826866,74.8179104 C207.717413,69.5422886 192.851741,66.9572139 191.044776,58.39801 C190.630846,56.4577114 190.600995,54.8099502 190.941294,52.7283582 C192.199005,44.9691542 199.645771,43.3572139 205.639801,43.3572139 C211.000995,43.3572139 214.903483,44.5273632 217.243781,46.8676617 C218.989055,48.6149254 219.872637,51.0129353 219.872637,53.9960199 L219.872637,57.0567164 L209.170149,57.0567164 L209.170149,54.3562189 C209.170149,52.0437811 207.735323,50.7064677 205.428856,50.7064677 C203.383085,50.7064677 202.145274,51.6159204 201.739303,53.4049751 C201.607542,54.1119095 201.625167,54.8385929 201.791045,55.5383085 C202.937313,60.2427861 218.841791,63.118408 220.583085,71.759204 C220.80796,72.8616915 221.116418,75.2278607 220.632836,78.6507463 Z M260.270647,74.7960199 C260.286567,75.5920398 260.208955,77.1820896 260.165174,77.5900498 C259.512438,84.5791045 254.513433,88.1313433 245.345274,88.1313433 C236.141294,88.1313433 231.138308,84.5791045 230.489552,77.5900498 C230.416029,76.6632094 230.380841,75.7337264 230.38408,74.8039801 L230.383875,44.439801 L241.333333,44.439801 L241.333333,75.761194 C241.321393,76.4616915 241.357214,76.9791045 241.426866,77.3393035 C241.562189,78.0358209 242.254726,80.2965174 245.345274,80.2965174 C248.425871,80.2965174 249.118408,78.0338308 249.263682,77.3472637 C249.325373,76.9771144 249.363184,76.4338308 249.363184,75.759204 L249.363184,44.439801 L260.270647,44.439801 L260.270647,74.7960199 Z M307.444776,86.439801 L292.208955,86.439801 L281.98209,52.8378109 L281.810945,52.8378109 L282.378109,86.439801 L271.759204,86.439801 L271.759204,44.4497512 L287.633831,44.4497512 L297.086567,76.7283582 L297.307463,76.7283582 L296.748259,44.4497512 L307.444776,44.4497512 L307.444776,86.439801 Z" id="Shape"></path>
        </g>
    </g>
</svg>
